src/16/actions/view-pim-contacts.svg

<svg xmlns="http://www.w3.org/2000/svg" width="16" height="16" viewBox="0 0 16 16">
 <defs>
  <style id="current-color-scheme" type="text/css">
   .ColorScheme-Text { color:#565656; } .ColorScheme-Highlight { color:#5294e2; }
  </style>
 </defs>
 <path style="fill:currentColor" class="ColorScheme-Text" d="M 0 1 L 0 15 C 5.3333 14.998 10.667 15.005906 16 15.003906 L 16 1.0039062 C 10.667 1.0058063 5.333 0.998 0 1 z M 5 5 C 6.1046 5 7 5.8955 7 7 C 7 8.1045 6.1046 9 5 9 C 3.8954 9 3 8.1045 3 7 C 3 5.8955 3.8954 5 5 5 z M 5 10 C 8.9998 9.9982 9 12.400391 9 12.400391 L 9 13 L 1 13 L 1 12.400391 C 1 12.400391 0.99989 10.002 5 10 z"/>
</svg>

<svg xmlns="http://www.w3.org/2000/svg" width="16" height="16"><defs><style id="current-color-scheme" type="text/css"></style></defs><path d="M0 1v14c5.333-.002 10.667.006 16 .004v-14C10.667 1.006 5.333.998 0 1zm5 4a2 2 0 1 1 0 4 2 2 0 0 1 0-4zm0 5c4-.002 4 2.4 4 2.4v.6H1v-.6s0-2.398 4-2.4z" fill="currentColor" color="#565656"/></svg>
